X: 161
M: C|
L: 1/8
K: Gmix
V: 1
|:\
(G/A/B/c/ d)G cFA2 | BGdG Bcdg |\
|:\
fedf cFA2 | Ggde TB2AB :|
V: 2 clef=bass middle=d
|:\
g2g2 f2f2 | g2g2 g2g2 |\
g2g2 f2f2 | g2g2 g2g2 :|\
|: g2g2
f2f2 | g2g2 f2f2 |\
f2f2 f2f2 | g2g2 g2g2 :|

